X:1
T:Tebe poem
T:Tebe poem
T:Fra op. 37
T:Mihail Ippolitov-Ivanov
C:Mihail Ippolitov-Ivanov
%%score [ 1 2 ( 3 4 ) ( 5 6 ) ]
L:1/8
Q:1/4=46
M:3/4
K:G
V:1 treble nm="Soprano"
V:2 treble nm="Alto"
V:3 treble-8 nm="Tenor"
V:4 treble-8 
V:5 bass nm="Bass"
V:6 bass 
V:1
"^Langsomt"!p! G2 |!>(! B4 A2 | G4!>)!!p! E2 |!>(! G4 =F2 | E2!>)! z2!p! E2 |!<(! F3 F G A!<)! | %6
w: Te-|be po-|em, Te-|be po-|em, Te-|be bla- go- slo-|
 !>!B4!p! E2 |!<(! F3 F G A!<)! | B z!mf!!>(! B3 B!>)! |!>(! B4- B!>)! z | z6 | z6 | z6 | %13
w: vim, Te-|be bla- go- da-|rim, Gos- po-|di, _||||
!mf!!>(! c2 c2 B!>)! z | z2 z2 z!f! B | f2 e2 ^d B | e z z!f! B (ed) | c B c2 B!f! A | %18
w: Bo- zhe nash|i|mo- * lim ti|sia, i mo- *|lim ti sia, _ i|
 d!<(! c B2 A2!<)! |!f! G4 F2 |!>(! E6!>)! |!p! B4 A2 | G6 |!>(! F6!>)! |!>(! E6- | %25
w: mo- lim ti sia|Bo- zhe|nash,|Bo- zhe,|Bo-|zhe|nash.|
 E2!>)! z2 !fermata!z2 |] %26
w: _|
V:2
!p! E2 |!>(! E4 ^D2 | E4!>)!!p! C2 |!>(! C4 B,2 | C2!>)! z2!p! E2 |!<(! E3 E E E!<)! | %6
w: Te-|be po-|em, Te-|be po-|em, Te-|be bla- go- slo-|
 !>!E4!p! E2 |!<(! E3 E E E!<)! | E z!mf!!>(! E2 ^D2!>)! |!>(! E4- E!>)! z | z6 | z6 | %12
w: vim, Te-|be bla- go- da-|rim, Gos- po-|di, _|||
 z2 z2 z!mf! E |!>(! A2 G A F!>)! z | z6 | z2 z!f! F F2 | E E E4- | E!f! E A G F F | %18
w: i|mo- lim ti sia||i mo-|lim ti sia,|_ i mo- lim ti sia,|
 G!<(! F G2 E2!<)! |!f! E4 ^D2 |!>(! E6!>)! |!p! E4 E2 | E6 |!>(! ^D6!>)! |!>(! E6- | %25
w: mo- lim ti sia|Bo- zhe|nash,|Bo- zhe,|Bo-|zhe|nash.|
 E2!>)! z2 !fermata!z2 |] %26
w: _|
V:3
!p! B2 |!>(! B4 B2 | B4!>)!!p! G2 |!>(! G4 G2 | G2!>)! z2!p! G2 |!<(! A3 A B c!<)! | !>!B4!p! G2 | %7
w: Te-|be po-|em, Te-|be po-|em, Te-|be bla- go- slo-|vim, Te-|
!<(! A3 A B c!<)! | B z!mf!!>(! B2 A2!>)! |!>(! G4- G!>)! z | z2 z2 z!mf! B | e2 d e c z | z6 | %13
w: be bla- go- da-|rim, Gos- po-|di, _|i|mo- lim ti sia,||
 z2 z2 z!f! B | f2 e f ^d2- | d!f! ^d (ec) B B | B2- B B (AB) | c e (ec) d d | d!<(! d d2 c2!<)! | %19
w: i|mo- lim ti sia,|_ i mo- * lim ti|sia, _ i mo- *|lim ti sia, _ _ i|mo- lim ti sia|
!f! B4 A2 |!>(! G6!>)! |!p! B4 c2 | B6 |!>(! A6!>)! |!>(! G6- | G2!>)! z2 !fermata!z2 |] %26
w: Bo- zhe|nash,|Bo- zhe,|Bo-|zhe|nash.|_|
V:4
 x2 | x6 | x6 | x6 | x6 | x6 | x6 | x6 | x6 | x6 | x6 | x6 | x6 | x6 | x6 | z A c2 BB | x6 | x6 | %18
 x6 | x6 | x6 | x6 | x6 | x6 | x6 | x6 |] %26
V:5
!p! E,2 |!>(! G,4 F,2 | E,4!>)!!p! C,2 |!>(! E,4 D,2 | C,2!>)! z2!p! C,2 |!<(! C,3 C, B,, A,,!<)! | %6
w: Te-|be po-|em, Te-|be po-|em, Te-|be bla- go- slo-|
 !>!G,,4!p! C,2 |!<(! C,3 C, B,, A,,!<)! | G,, z!mf!!>(! F,,2 B,,2!>)! |!>(! E,4- E,!>)! E, | %10
w: vim, Te-|be bla- go- da-|rim, Gos- po-|di, _ i|
 z2 z2 z!mf! G, | (G,E,) F, ^G, A,!mf! A, | C2 B, C (A,G,) | F,2 E,2 ^D, z | z6 | %15
w: i|mo- * lim ti sia, i|mo- lim ti sia _|Bo- zhe nash||
 z2 z!f! [F,,F,] ([B,,B,][A,,A,]) | [G,,G,]!<(! [B,,B,] [E,E]!<)! [D,D] ([C,C][B,,B,]) | %17
w: I mo- *|lim ti sia, i mo- *|
 [A,,A,] [G,,G,] ([F,,F,][A,,E,]) D, C, | B,,!<(! A,, G,,2 A,,2!<)! |!f! B,,4 B,,2 |!>(! C,6!>)! | %21
w: lim ti sia, _ _ i|mo- lim ti sia|Bo- zhe|nash,|
!p! G,,4 A,,2 | B,,6 |!>(! [B,,,B,,]6!>)! |!>(! [E,,B,,]6- | [E,,B,,]2!>)! z2 !fermata!z2 |] %26
w: Bo- zhe,|Bo-|zhe|nash.|_|
V:6
 x2 | x6 | x6 | x6 | x6 | x6 | x6 | x6 | x6 | x6 | G,2 F, G, E, D, | C,2 B,,E, A,, z | z6 | z6 | %14
w: ||||||||||mo- lim ti sia, *||||
 x6 | x6 | x6 | x6 | x6 | x6 | x6 | x6 | x6 | x6 | x6 | x6 |] %26
w: ||||||||||||

